img/menu/m-icons-cat10.svg

<svg width="24" height="24" viewBox="0 0 24 24" fill="none" xmlns="http://www.w3.org/2000/svg">
<path d="M19.7001 11H8.90015V6C8.90015 5.4 9.30015 5 9.90015 5C10.5001 5 10.9001 5.4 10.9001 6H12.9001C12.9001 4.3 11.6001 3 9.90015 3C8.20015 3 6.90015 4.3 6.90015 6V11H5.00015C3.50015 11 2.60015 12.5 3.20015 13.8L3.70015 14.9C4.60015 16.8 6.30015 18.2 8.30015 18.7C8.60015 19.2 9.00015 19.7 9.40015 20C10.2001 20.6 11.3001 21 12.3001 21C13.4001 21 14.4001 20.6 15.2001 20C15.6001 19.7 16.0001 19.2 16.3001 18.8C18.3001 18.3 20.0001 16.9 20.9001 15L21.4001 13.9C22.2001 12.5 21.2001 11 19.7001 11ZM19.2001 14.1C18.4001 15.9 16.6001 17 14.7001 17H10.0001C8.10015 17 6.30015 15.9 5.50015 14.1L5.00015 13H19.7001L19.2001 14.1Z" fill="#034899"/>
</svg>

<svg width="24" height="24" fill="none" xmlns="http://www.w3.org/2000/svg"><path d="M19.7 11H8.9V6c0-.6.4-1 1-1s1 .4 1 1h2c0-1.7-1.3-3-3-3s-3 1.3-3 3v5H5c-1.5 0-2.4 1.5-1.8 2.8l.5 1.1c.9 1.9 2.6 3.3 4.6 3.8.3.5.7 1 1.1 1.3.8.6 1.9 1 2.9 1 1.1 0 2.1-.4 2.9-1 .4-.3.8-.8 1.1-1.2 2-.5 3.7-1.9 4.6-3.8l.5-1.1c.8-1.4-.2-2.9-1.7-2.9zm-.5 3.1c-.8 1.8-2.6 2.9-4.5 2.9H10c-1.9 0-3.7-1.1-4.5-2.9L5 13h14.7l-.5 1.1z" fill="#034899"/></svg>
